X:1
T:Buckhurst Hill, 87.87
T:Buckhurst Hill, 87.87
T:German chorale, harm. by J. S. Bach
T:Public Domain Courtesy of the Cyber Hymnal™
C:German chorale, harm. by J. S. Bach
Z:Public Domain
Z:Courtesy of the Cyber Hymnal™
%%score ( 1 2 ) ( 3 4 )
L:1/8
Q:1/4=108
M:4/4
K:C
V:1 treble 
V:2 treble 
V:3 bass 
V:4 bass 
V:1
 [Gc]2 | [GB]2 [^FA]2 !fermata![DG]2 G2 x | [CA]2 [EB]2 !fermata![Ec]2 [G-d]2 | %3
 c2 [GB]2 [=FA]2 (Bc) | !fermata!A4 !fermata!G2 [Gc]2 | [FB]2 [Gc]2 !fermata![Gd]2 [Gd]2 | %6
 [Ge]2 (dc) !fermata![Gd]2 G2 | [DA]2 [DB]2 (cd)[Af] x | !fermata!d4 !fermata![Ec]2 |] %9
V:2
 x2 | x6 (ED) x | x8 | (G^F) x3 G2 x | G2 ^F2 G2 x2 | x8 | x2 ^F2 x G2 x | x4 C3 e | (G3 F) x2 |] %9
V:3
 [C,E]2 | D3 z C !fermata![G,,B,]2 (C_B,) | ([F,A,][E,G,]) [D,F,]2 !fermata![C,G,]2 [G,,B,]2 | %3
 [A,,C]2 D2 [D,D]2 [G,D]2 | !fermata![C,E]2 (!fermata!D!fermata!C) [G,,B,]2 [E,C]2 | %5
 [D,D]2 [C,E]2 !fermata![G,B,]2 [G,B,]2 | C2 [A,C]2 !fermata![G,B,]2 [E,C]2 | %7
 [F,C]2 [^G,F]2 (EF) ([=G,^G][F,C]) | (!fermata![G,C]2 !fermata![G,,B,]2) !fermata![C,G,]2 |] %9
V:4
 x2 | G,2 D,2 x C,2 x2 | x8 | x2 (B,,C,) x4 | x2 D,2 x4 | x8 | (CB,) x6 | x4 A,2 x2 | x6 |] %9

